dist/images/svg/Vector.svg

<svg width="29" height="28" viewBox="0 0 29 28" fill="none" xmlns="http://www.w3.org/2000/svg">
<path d="M21.46 0H7.54C5.54027 0 3.62244 0.766998 2.20841 2.13226C0.79439 3.49753 0 5.34922 0 7.28V20.72C0 22.6508 0.79439 24.5025 2.20841 25.8677C3.62244 27.233 5.54027 28 7.54 28H21.46C23.4597 28 25.3776 27.233 26.7916 25.8677C28.2056 24.5025 29 22.6508 29 20.72V7.28C29 5.34922 28.2056 3.49753 26.7916 2.13226C25.3776 0.766998 23.4597 0 21.46 0ZM15.08 26.88V17.36C15.08 17.2115 15.0189 17.069 14.9101 16.964C14.8014 16.859 14.6538 16.8 14.5 16.8H11.6V13.44H14.5C14.6538 13.44 14.8014 13.381 14.9101 13.276C15.0189 13.171 15.08 13.0285 15.08 12.88V8.4C15.08 7.65739 15.3855 6.9452 15.9294 6.4201C16.4732 5.895 17.2109 5.6 17.98 5.6H22.62V8.96H20.3C19.8385 8.96 19.3959 9.137 19.0696 9.45206C18.7433 9.76712 18.56 10.1944 18.56 10.64V12.88C18.56 13.0285 18.6211 13.171 18.7299 13.276C18.8386 13.381 18.9862 13.44 19.14 13.44H22.62V16.8H19.14C18.9862 16.8 18.8386 16.859 18.7299 16.964C18.6211 17.069 18.56 17.2115 18.56 17.36V26.88H15.08ZM27.84 20.72C27.84 22.3537 27.1678 23.9206 25.9713 25.0758C24.7749 26.231 23.1521 26.88 21.46 26.88H19.72V17.92H23.2C23.3538 17.92 23.5014 17.861 23.6101 17.756C23.7189 17.651 23.78 17.5085 23.78 17.36V12.88C23.78 12.7315 23.7189 12.589 23.6101 12.484C23.5014 12.379 23.3538 12.32 23.2 12.32H19.72V10.64C19.72 10.4915 19.7811 10.349 19.8899 10.244C19.9986 10.139 20.1462 10.08 20.3 10.08H23.2C23.3538 10.08 23.5014 10.021 23.6101 9.91598C23.7189 9.81096 23.78 9.66852 23.78 9.52V5.04C23.78 4.89148 23.7189 4.74904 23.6101 4.64402C23.5014 4.539 23.3538 4.48 23.2 4.48H17.98C16.9032 4.48 15.8705 4.893 15.1091 5.62814C14.3477 6.36328 13.92 7.36035 13.92 8.4V12.32H11.02C10.8662 12.32 10.7186 12.379 10.6099 12.484C10.5011 12.589 10.44 12.7315 10.44 12.88V17.36C10.44 17.5085 10.5011 17.651 10.6099 17.756C10.7186 17.861 10.8662 17.92 11.02 17.92H13.92V26.88H7.54C5.84792 26.88 4.22514 26.231 3.02866 25.0758C1.83218 23.9206 1.16 22.3537 1.16 20.72V7.28C1.16 5.64627 1.83218 4.07945 3.02866 2.92422C4.22514 1.769 5.84792 1.12 7.54 1.12H21.46C23.1521 1.12 24.7749 1.769 25.9713 2.92422C27.1678 4.07945 27.84 5.64627 27.84 7.28V20.72Z" fill="#222222"/>
</svg>

<svg width="29" height="28" fill="none" xmlns="http://www.w3.org/2000/svg"><path d="M21.46 0H7.54c-2 0-3.918.767-5.332 2.132A7.155 7.155 0 0 0 0 7.28v13.44c0 1.93.794 3.783 2.208 5.148A7.679 7.679 0 0 0 7.54 28h13.92c2 0 3.918-.767 5.332-2.132A7.155 7.155 0 0 0 29 20.72V7.28c0-1.93-.794-3.782-2.208-5.148A7.679 7.679 0 0 0 21.46 0zm-6.38 26.88v-9.52a.55.55 0 0 0-.17-.396.59.59 0 0 0-.41-.164h-2.9v-3.36h2.9a.59.59 0 0 0 .41-.164.55.55 0 0 0 .17-.396V8.4c0-.743.306-1.455.85-1.98a2.953 2.953 0 0 1 2.05-.82h4.64v3.36H20.3a1.77 1.77 0 0 0-1.23.492c-.327.315-.51.742-.51 1.188v2.24a.55.55 0 0 0 .17.396.59.59 0 0 0 .41.164h3.48v3.36h-3.48a.59.59 0 0 0-.41.164.55.55 0 0 0-.17.396v9.52h-3.48zm12.76-6.16c0 1.634-.672 3.2-1.869 4.356a6.497 6.497 0 0 1-4.511 1.804h-1.74v-8.96h3.48a.59.59 0 0 0 .41-.164.55.55 0 0 0 .17-.396v-4.48a.55.55 0 0 0-.17-.396.59.59 0 0 0-.41-.164h-3.48v-1.68a.55.55 0 0 1 .17-.396.59.59 0 0 1 .41-.164h2.9a.59.59 0 0 0 .41-.164.55.55 0 0 0 .17-.396V5.04a.55.55 0 0 0-.17-.396.59.59 0 0 0-.41-.164h-5.22a4.13 4.13 0 0 0-2.87 1.148A3.853 3.853 0 0 0 13.92 8.4v3.92h-2.9a.59.59 0 0 0-.41.164.55.55 0 0 0-.17.396v4.48a.55.55 0 0 0 .17.396.59.59 0 0 0 .41.164h2.9v8.96H7.54a6.498 6.498 0 0 1-4.511-1.804A6.054 6.054 0 0 1 1.16 20.72V7.28c0-1.634.672-3.2 1.869-4.356A6.497 6.497 0 0 1 7.54 1.12h13.92c1.692 0 3.315.649 4.511 1.804A6.054 6.054 0 0 1 27.84 7.28v13.44z" fill="#222"/></svg>
